X:33
T:Blue Beard. JJo.033
T:March from Blue Beard,aka. JJo.033
S:J.Jones MS,1801,N.Shrops.
N:DaCapo sign at end. Finish on A music.
A:N Shropshire
Z:Neil Brookes 2006
M:4/4
L:1/8
Q:3/8=120
K:C
g3fe2d2|c4d4|edef agfe|d2d>dd4|g3fe2d2|c4d4|edef e2Td2|c2c>cc4::!
d3cB2c2|d4e4|fefg agfe|d2d>dd4|d3cB2c2|d4e4|d2c2B2A2|”D.C.”G2G>GG4:|

